proprietary/assets/icons/symbolen-en-abstract/lachend-gezicht.svg

<svg height="64" viewBox="0 0 64 64" width="64" xmlns="http://www.w3.org/2000/svg"><path d="m0 0h64v64h-64z" fill="none"/><path d="m32 8c-13.2548 0-24 10.7452-24 24s10.7452 24 24 24 24-10.7452 24-24-10.7452-24-24-24zm8 18.76c1.7894 0 3.24 1.4506 3.24 3.24 0 1.7893-1.4506 3.24-3.24 3.24s-3.24-1.4507-3.24-3.24c0-1.7894 1.4506-3.24 3.24-3.24zm-16 0c1.7894 0 3.24 1.4506 3.24 3.24 0 1.7893-1.4506 3.24-3.24 3.24s-3.24-1.4507-3.24-3.24c0-1.7894 1.4506-3.24 3.24-3.24zm20.1929 13.2932c-1.9299 4.0021-6.6612 8.0753-12.1929 8.0753-5.5318 0-10.2632-4.0733-12.193-8.0755-.226-.4688.3179-.9471.7492-.656 2.9267 1.9759 6.9723 3.5815 11.4438 3.5815s8.5171-1.6055 11.4438-3.5813c.4313-.2912.9752.1872.7491.656z"/></svg>

<?xml version="1.0" encoding="utf-8"?>
<!-- Generator: Adobe Illustrator 19.1.0, SVG Export Plug-In . SVG Version: 6.00 Build 0)  -->
<svg version="1.2" baseProfile="tiny" xmlns="http://www.w3.org/2000/svg" xmlns:xlink="http://www.w3.org/1999/xlink" x="0px"
	 y="0px" width="64px" height="64px" viewBox="0 0 64 64" xml:space="preserve">
<g id="Box">
	<rect fill="none" width="64" height="64"/>
</g>
<g id="Icon">
	<g>
		<path d="M32,8C18.7452,8,8,18.7452,8,32s10.7452,24,24,24s24-10.7452,24-24S45.2548,8,32,8z M40,26.76
			c1.7894,0,3.24,1.4506,3.24,3.24c0,1.7893-1.4506,3.24-3.24,3.24s-3.24-1.4507-3.24-3.24C36.76,28.2106,38.2106,26.76,40,26.76z
			 M24,26.76c1.7894,0,3.24,1.4506,3.24,3.24c0,1.7893-1.4506,3.24-3.24,3.24s-3.24-1.4507-3.24-3.24
			C20.76,28.2106,22.2106,26.76,24,26.76z M44.1929,40.0532C42.263,44.0553,37.5317,48.1285,32,48.1285
			c-5.5318,0-10.2632-4.0733-12.193-8.0755c-0.226-0.4688,0.3179-0.9471,0.7492-0.656c2.9267,1.9759,6.9723,3.5815,11.4438,3.5815
			s8.5171-1.6055,11.4438-3.5813C43.8751,39.106,44.419,39.5844,44.1929,40.0532z"/>
	</g>
</g>
</svg>
